X: 35399
T: Röst-Pe, The
R: waltz
M: 3/4
K: Gmajor
B2 c2|d3 d d2|d2 c2 B2|g6|d6|
e3 e e2|e2 f2 g2|d3 c BA|G6|
A3 A A2|A2 B2 c2|e6|d5|
c2 (cB) A2|B2 (BA) G2|(FA) d2 F2|1 G2:|2 G6|
|:A2 (FA) c2|B2 (GB) d2|e2 (ce) g2|f2 (df) a2|
a2 (ef) g2|f2 (ed) (fa)|(ag) (e^c) (ec)|1 d6:|2 d2||

